svg/fluentui-system-icons/ic_fluent_arrow_expand_20_regular.svg

<svg width="20" height="20" viewBox="0 0 20 20" fill="none" xmlns="http://www.w3.org/2000/svg">
<path d="M3.5 3C3.22386 3 3 3.22386 3 3.5V7.5C3 7.77614 3.22386 8 3.5 8C3.77614 8 4 7.77614 4 7.5V4.70711L7.14645 7.85355C7.34171 8.04882 7.65829 8.04882 7.85355 7.85355C8.04882 7.65829 8.04882 7.34171 7.85355 7.14645L4.70711 4H7.5C7.77614 4 8 3.77614 8 3.5C8 3.22386 7.77614 3 7.5 3H3.5ZM3.5 17C3.22386 17 3 16.7761 3 16.5V12.5C3 12.2239 3.22386 12 3.5 12C3.77614 12 4 12.2239 4 12.5V15.2929L7.14645 12.1464C7.34171 11.9512 7.65829 11.9512 7.85355 12.1464C8.04882 12.3417 8.04882 12.6583 7.85355 12.8536L4.70711 16H7.5C7.77614 16 8 16.2239 8 16.5C8 16.7761 7.77614 17 7.5 17H3.5ZM17 3.5C17 3.22386 16.7761 3 16.5 3H12.5C12.2239 3 12 3.22386 12 3.5C12 3.77614 12.2239 4 12.5 4H15.2929L12.1464 7.14645C11.9512 7.34171 11.9512 7.65829 12.1464 7.85355C12.3417 8.04882 12.6583 8.04882 12.8536 7.85355L16 4.70711V7.5C16 7.77614 16.2239 8 16.5 8C16.7761 8 17 7.77614 17 7.5V3.5ZM16.5 17C16.7761 17 17 16.7761 17 16.5V12.5C17 12.2239 16.7761 12 16.5 12C16.2239 12 16 12.2239 16 12.5V15.2929L12.8536 12.1464C12.6583 11.9512 12.3417 11.9512 12.1464 12.1464C11.9512 12.3417 11.9512 12.6583 12.1464 12.8536L15.2929 16H12.5C12.2239 16 12 16.2239 12 16.5C12 16.7761 12.2239 17 12.5 17H16.5Z" fill="#212121"/>
</svg>

<svg xmlns="http://www.w3.org/2000/svg" width="20" height="20"><path d="M3.5 3a.5.5 0 0 0-.5.5v4a.5.5 0 0 0 1 0V4.707l3.146 3.147a.5.5 0 1 0 .708-.708L4.707 4H7.5a.5.5 0 0 0 0-1h-4Zm0 14a.5.5 0 0 1-.5-.5v-4a.5.5 0 0 1 1 0v2.793l3.146-3.147a.5.5 0 0 1 .708.708L4.707 16H7.5a.5.5 0 0 1 0 1h-4ZM17 3.5a.5.5 0 0 0-.5-.5h-4a.5.5 0 0 0 0 1h2.793l-3.147 3.146a.5.5 0 0 0 .708.708L16 4.707V7.5a.5.5 0 0 0 1 0v-4ZM16.5 17a.5.5 0 0 0 .5-.5v-4a.5.5 0 0 0-1 0v2.793l-3.146-3.147a.5.5 0 0 0-.708.708L15.293 16H12.5a.5.5 0 0 0 0 1h4Z"/></svg>
